client/public/shopping-basket-color.svg

<svg id="Capa_1" enable-background="new 0 0 512 512" height="512" viewBox="0 0 512 512" width="512" xmlns="http://www.w3.org/2000/svg"><g><g><path d="m501.594 242.449h-491.187c-5.748 0-10.407-4.659-10.407-10.407v-20.813c0-5.747 4.659-10.407 10.407-10.407h491.187c5.747 0 10.406 4.659 10.406 10.407v20.813c0 5.748-4.659 10.407-10.406 10.407z" fill="#ffe07d"/></g><g><path d="m501.594 200.823h-27.057c5.747 0 10.406 4.659 10.406 10.407v20.813c0 5.747-4.659 10.407-10.406 10.407h27.057c5.747 0 10.406-4.659 10.406-10.407v-20.813c0-5.748-4.659-10.407-10.406-10.407z" fill="#ffd064"/></g><g><path d="m27.577 242.449 32.541 192.52c2.539 15.017 15.558 26.016 30.782 26.016h330.313c15.183 0 28.16-10.916 30.762-25.871l33.488-192.666h-457.886zm157.659 158.179c0 5.744-4.662 10.406-10.407 10.406h-20.813c-5.744 0-10.407-4.662-10.407-10.406v-104.065c0-5.744 4.662-10.406 10.407-10.406h20.813c5.744 0 10.407 4.662 10.407 10.406zm91.577 0c0 5.744-4.662 10.406-10.407 10.406h-20.813c-5.744 0-10.407-4.662-10.407-10.406v-104.065c0-5.744 4.662-10.406 10.407-10.406h20.813c5.744 0 10.407 4.662 10.407 10.406zm91.577 0c0 5.744-4.662 10.406-10.406 10.406h-20.813c-5.744 0-10.407-4.662-10.407-10.406v-104.065c0-5.744 4.662-10.406 10.407-10.406h20.813c5.744 0 10.406 4.662 10.406 10.406z" fill="#dd636e"/></g><g><path d="m457.886 242.449-33.488 192.666c-2.602 14.954-15.579 25.871-30.762 25.871h27.577c15.183 0 28.16-10.916 30.762-25.871l33.488-192.666z" fill="#da4a54"/></g><g><path d="m330.784 230.717-72.691-149.798c-5.018-10.341-.703-22.793 9.639-27.811 10.341-5.018 22.793-.703 27.811 9.639l72.691 149.799c5.018 10.341.703 22.793-9.639 27.811-10.342 5.017-22.793.702-27.811-9.64z" fill="#e7a561"/></g><g><path d="m181.217 230.717 72.691-149.799c5.018-10.341.703-22.793-9.639-27.811-10.341-5.018-22.793-.703-27.811 9.639l-72.691 149.799c-5.018 10.341-.703 22.793 9.639 27.811 10.341 5.018 22.792.703 27.811-9.639z" fill="#e7a561"/></g><g><path d="m368.233 212.545-72.69-149.799c-4.992-10.287-17.337-14.603-27.646-9.709 4.133 1.958 7.657 5.274 9.809 9.709l72.691 149.799c5.018 10.341.703 22.793-9.639 27.811-.054.026-.111.044-.165.07 5.505 2.607 12.095 2.796 18.002-.07 10.341-5.018 14.656-17.47 9.638-27.811z" fill="#e49542"/></g><g><path d="m244.269 53.107c-5.907-2.866-12.497-2.677-18.002-.07.055.026.111.044.165.07 10.341 5.018 14.657 17.47 9.639 27.811l-72.691 149.799c-2.152 4.435-5.676 7.751-9.809 9.709 10.309 4.894 22.654.579 27.646-9.709l72.691-149.799c5.017-10.341.702-22.792-9.639-27.811z" fill="#e49542"/></g></g></svg>

<svg width="512" height="512" viewBox="0 0 512 512" fill="none" xmlns="http://www.w3.org/2000/svg">
<g clip-path="url(#clip0)">
<path d="M501.594 242.449H10.407C4.659 242.449 0 237.79 0 232.042V211.229C0 205.482 4.659 200.822 10.407 200.822H501.594C507.341 200.822 512 205.481 512 211.229V232.042C512 237.79 507.341 242.449 501.594 242.449Z" fill="#FFE07D"/>
<path d="M501.594 200.823H474.537C480.284 200.823 484.943 205.482 484.943 211.23V232.043C484.943 237.79 480.284 242.45 474.537 242.45H501.594C507.341 242.45 512 237.791 512 232.043V211.23C512 205.482 507.341 200.823 501.594 200.823Z" fill="#FFD064"/>
<path d="M27.577 242.449L60.118 434.969C62.657 449.986 75.676 460.985 90.9 460.985H421.213C436.396 460.985 449.373 450.069 451.975 435.114L485.463 242.448H27.577V242.449ZM185.236 400.628C185.236 406.372 180.574 411.034 174.829 411.034H154.016C148.272 411.034 143.609 406.372 143.609 400.628V296.563C143.609 290.819 148.271 286.157 154.016 286.157H174.829C180.573 286.157 185.236 290.819 185.236 296.563V400.628ZM276.813 400.628C276.813 406.372 272.151 411.034 266.406 411.034H245.593C239.849 411.034 235.186 406.372 235.186 400.628V296.563C235.186 290.819 239.848 286.157 245.593 286.157H266.406C272.15 286.157 276.813 290.819 276.813 296.563V400.628ZM368.39 400.628C368.39 406.372 363.728 411.034 357.984 411.034H337.171C331.427 411.034 326.764 406.372 326.764 400.628V296.563C326.764 290.819 331.426 286.157 337.171 286.157H357.984C363.728 286.157 368.39 290.819 368.39 296.563V400.628Z" fill="#F98335" fill-opacity="0.7"/>
<path d="M457.886 242.449L424.398 435.115C421.796 450.069 408.819 460.986 393.636 460.986H421.213C436.396 460.986 449.373 450.07 451.975 435.115L485.463 242.449H457.886Z" fill="#F98335"/>
<path d="M330.784 230.717L294.439 155.818L258.093 80.9189C253.075 70.5779 257.39 58.1259 267.732 53.1079C278.073 48.0899 290.525 52.4049 295.543 62.7469L368.234 212.546C373.252 222.887 368.937 235.339 358.595 240.357C348.253 245.374 335.802 241.059 330.784 230.717Z" fill="#F98335" fill-opacity="0.7"/>
<path d="M181.217 230.717L253.908 80.918C258.926 70.577 254.611 58.125 244.269 53.107C233.928 48.089 221.476 52.404 216.458 62.746L143.767 212.545C138.749 222.886 143.064 235.338 153.406 240.356C163.747 245.374 176.198 241.059 181.217 230.717Z" fill="#F98335" fill-opacity="0.7"/>
<path d="M368.233 212.545L295.543 62.746C290.551 52.459 278.206 48.143 267.897 53.037C272.03 54.995 275.554 58.311 277.706 62.746L350.397 212.545C355.415 222.886 351.1 235.338 340.758 240.356C340.704 240.382 340.647 240.4 340.593 240.426C346.098 243.033 352.688 243.222 358.595 240.356C368.936 235.338 373.251 222.886 368.233 212.545Z" fill="#F98335"/>
<path d="M244.269 53.1069C238.362 50.2409 231.772 50.4299 226.267 53.0369C226.322 53.0629 226.378 53.0809 226.432 53.1069C236.773 58.1249 241.089 70.5769 236.071 80.9179L163.38 230.717C161.228 235.152 157.704 238.468 153.571 240.426C163.88 245.32 176.225 241.005 181.217 230.717L253.908 80.9179C258.925 70.5769 254.61 58.1259 244.269 53.1069V53.1069Z" fill="#F98335"/>
</g>
<defs>
<clipPath id="clip0">
<rect width="512" height="512" fill="white"/>
</clipPath>
</defs>
</svg>
